src/icons/phone.svg

<svg width="24" height="25" viewBox="0 0 24 25" fill="none" xmlns="http://www.w3.org/2000/svg">
<path d="M24 18.5L18 24.5L0 6.5L6 0.5L12 6.5L9 9.5L15 15.5L18 12.5L24 18.5Z" fill="white"/>
</svg>

<svg xmlns="http://www.w3.org/2000/svg" width="24" height="25" fill="none"><path fill="#fff" d="m24 18.5-6 6-18-18 6-6 6 6-3 3 6 6 3-3 6 6Z"/></svg>
